resources/svg/ghost-o.svg

<svg xmlns="http://www.w3.org/2000/svg" viewBox="0 0 15 15" fill="none"><path d="M3.91421 14.0858L4.26777 14.4393L4.26777 14.4393L3.91421 14.0858ZM4 14L3.64645 13.6464L3.64645 13.6464L4 14ZM6.5 14L6.85355 13.6464L6.85355 13.6464L6.5 14ZM6.64645 14.1464L6.29289 14.5L6.29289 14.5L6.64645 14.1464ZM8.35355 14.1464L8 13.7929H8L8.35355 14.1464ZM8.5 14L8.85355 14.3536H8.85355L8.5 14ZM11 14L10.6464 14.3536L11 14ZM11.0858 14.0858L10.7322 14.4393H10.7322L11.0858 14.0858ZM5 6H6V5H5V6ZM9 6H10V5H9V6ZM10.1 7.7C8.8 9.43333 6.2 9.43333 4.9 7.7L4.1 8.3C5.8 10.5667 9.2 10.5667 10.9 8.3L10.1 7.7ZM4.26777 14.4393L4.35355 14.3536L3.64645 13.6464L3.56066 13.7322L4.26777 14.4393ZM5.20711 14H5.29289V13H5.20711V14ZM6.14645 14.3536L6.29289 14.5L7 13.7929L6.85355 13.6464L6.14645 14.3536ZM8.70711 14.5L8.85355 14.3536L8.14645 13.6464L8 13.7929L8.70711 14.5ZM9.70711 14H9.79289V13H9.70711V14ZM10.6464 14.3536L10.7322 14.4393L11.4393 13.7322L11.3536 13.6464L10.6464 14.3536ZM12.0858 15C13.143 15 14 14.143 14 13.0858H13C13 13.5907 12.5907 14 12.0858 14V15ZM10.7322 14.4393C11.0912 14.7983 11.5781 15 12.0858 15V14C11.8433 14 11.6108 13.9037 11.4393 13.7322L10.7322 14.4393ZM9.79289 14C10.113 14 10.4201 14.1272 10.6464 14.3536L11.3536 13.6464C10.9396 13.2325 10.3783 13 9.79289 13V14ZM8.85355 14.3536C9.07993 14.1272 9.38696 14 9.70711 14V13C9.12175 13 8.56036 13.2325 8.14645 13.6464L8.85355 14.3536ZM7.5 15C7.95275 15 8.38696 14.8201 8.70711 14.5L8 13.7929C7.86739 13.9255 7.68754 14 7.5 14V15ZM6.29289 14.5C6.61304 14.8201 7.04725 15 7.5 15V14C7.31246 14 7.13261 13.9255 7 13.7929L6.29289 14.5ZM5.29289 14C5.61304 14 5.92007 14.1272 6.14645 14.3536L6.85355 13.6464C6.43964 13.2325 5.87825 13 5.29289 13V14ZM4.35355 14.3536C4.57993 14.1272 4.88696 14 5.20711 14V13C4.62175 13 4.06036 13.2325 3.64645 13.6464L4.35355 14.3536ZM2.91421 15C3.42189 15 3.90878 14.7983 4.26777 14.4393L3.56066 13.7322C3.38921 13.9037 3.15668 14 2.91421 14V15ZM1 13.0858C1 14.143 1.85702 15 2.91421 15V14C2.40931 14 2 13.5907 2 13.0858H1ZM7.5 1C10.5376 1 13 3.46243 13 6.5H14C14 2.91015 11.0899 0 7.5 0V1ZM2 6.5C2 3.46243 4.46243 1 7.5 1V0C3.91015 0 1 2.91015 1 6.5H2ZM1 6.5V13.0858H2V6.5H1ZM14 13.0858V6.5H13V13.0858H14Z" fill="black"/></svg>

<svg xmlns="http://www.w3.org/2000/svg" viewBox="0 0 15 15" fill="none"><path d="M3.914 14.086l.354.353-.354-.353zM4 14l-.354-.354L4 14zm2.5 0l.354-.354L6.5 14zm.146.146l-.353.354.353-.354zm1.708 0L8 13.793l.354.353zM8.5 14l.354.354L8.5 14zm2.5 0l-.354.354L11 14zm.086.086l-.354.353.354-.353zM5 6h1V5H5v1zm4 0h1V5H9v1zm1.1 1.7a3.25 3.25 0 01-5.2 0l-.8.6c1.7 2.267 5.1 2.267 6.8 0l-.8-.6zm-5.832 6.74l.086-.086-.708-.708-.085.086.707.707zm.94-.44h.085v-1h-.086v1zm.938.354l.147.146.707-.707-.146-.147-.708.708zm2.561.146l.147-.146-.708-.708-.146.147.707.707zm1-.5h.086v-1h-.086v1zm.94.354l.085.085.707-.707-.085-.086-.708.708zm1.439.646A1.914 1.914 0 0014 13.086h-1c0 .505-.41.914-.914.914v1zm-1.354-.56c.36.358.846.56 1.354.56v-1a.914.914 0 01-.647-.268l-.707.707zm-.94-.44c.321 0 .628.127.854.354l.708-.708A2.207 2.207 0 009.793 13v1zm-.938.354c.226-.227.533-.354.853-.354v-1c-.585 0-1.147.232-1.56.646l.707.708zM7.5 15c.453 0 .887-.18 1.207-.5L8 13.793a.707.707 0 01-.5.207v1zm-1.207-.5c.32.32.754.5 1.207.5v-1a.707.707 0 01-.5-.207l-.707.707zm-1-.5c.32 0 .627.127.853.354l.708-.708A2.207 2.207 0 005.293 13v1zm-.94.354c.227-.227.534-.354.854-.354v-1c-.585 0-1.147.232-1.56.646l.707.708zM2.915 15c.508 0 .995-.202 1.354-.56l-.707-.708a.914.914 0 01-.647.268v1zM1 13.086C1 14.143 1.857 15 2.914 15v-1A.914.914 0 012 13.086H1zM7.5 1A5.5 5.5 0 0113 6.5h1A6.5 6.5 0 007.5 0v1zM2 6.5A5.5 5.5 0 017.5 1V0A6.5 6.5 0 001 6.5h1zm-1 0v6.586h1V6.5H1zm13 6.586V6.5h-1v6.586h1z" fill="currentColor"/></svg>
